X:1
T:Springhill, 87.87
T:Springhill, 87.87
T:William Flavel Hurndall, 1878
T:Public Domain Courtesy of the Cyber Hymnal™
C:William Flavel Hurndall, 1878
Z:Public Domain
Z:Courtesy of the Cyber Hymnal™
%%score ( 1 2 ) ( 3 4 )
L:1/8
Q:1/4=110
M:4/4
K:G
V:1 treble 
V:2 treble 
V:3 bass 
V:4 bass 
V:1
 [B,G]2 [CA]2 [Ec]2 [DB]2 | [CA]2 G2 [DG]2 [DF]2 | [DG]2 [CE]2 D2 [DG]2 | [DF]2 [DG]2 [FA]4 | %4
 G2 [DA]2 [Cc]2 [DB]2 | [Ee]2 [Fd]2 [Gd]2 [GB]2 | [FB]2 B2 [EA]2 [CE]2 | [B,D]2 [CA]2 [B,G]4 x |] %8
V:2
 x8 | x2 (B,^C) x4 | x4 D2 x2 | x8 | G2 x6 | x8 | x2 (GF) x4 | x9 |] %8
V:3
 G,2 G,2 G,2 G,2 | [C,E,]2 [E,G,]2 [D,A,]2 A,2 | [B,,G,]2 [C,G,]2 [B,,G,]2 B,2 | %3
 [A,C]2 [G,B,]2 (D2 C2) | [G,B,]2 [F,A,]2 [E,G,]2 [D,G,]2 | [C,G,]2 [D,C]2 [G,B,]2 [G,B,]2 | %6
 [^D,B,]2 B,2 [C,C]2 (A,G,) | G,3 z F, [G,,G,]4 |] %8
V:4
 G,2 G,2 G,2 G,2 | x6 (D,C,) | x6 B,2 | x4 D,4 | x8 | x8 | x2 (E,=D,) x C,2 x | D,2 D,2 x5 |] %8

